packages/landing-ui/public/how-it-works-hero.svg

<svg width="477" height="417" viewBox="0 0 477 417" fill="none" xmlns="http://www.w3.org/2000/svg">
<path d="M246.599 227.161C246.599 227.161 250.134 262.25 279.432 270.963C308.73 279.677 324.555 274.133 341.971 255.922C341.971 255.922 337.222 291.548 317.432 305.01C317.432 305.01 364.146 299.327 379.187 250.712C379.187 250.712 424.31 247.488 426.685 205.782C426.685 205.782 470.229 191.009 475.772 151.419C481.316 111.828 462.311 99.9563 436.977 84.9151C436.977 84.9151 447.13 62.203 418.391 39.6413C398.246 27.8232 374.438 40.576 374.438 40.576C374.438 40.576 363.351 1.79127 309.514 0.201202C292.894 0.201202 266.292 16.8324 263.757 35.043C263.757 35.043 232.17 16.0374 203.152 36.6223C174.133 57.2072 182.492 95.2076 192.172 112.623C192.172 112.623 161.101 142.705 177.915 185.465C194.729 228.225 246.599 227.161 246.599 227.161Z" fill="#DEEAF8"/>
<path d="M334.418 180.652H295.01V176.72C295.01 170.016 295.773 164.572 297.298 160.389C298.829 156.179 301.132 152.291 304.088 148.926C307.097 145.481 313.851 139.393 324.351 130.662C329.959 126.099 332.76 121.916 332.753 118.113C332.745 114.31 331.625 111.355 329.39 109.25C327.134 107.101 323.739 106.08 319.173 106.08C316.916 106.013 314.669 106.411 312.573 107.25C310.477 108.09 308.576 109.352 306.989 110.958C303.78 114.217 301.725 119.886 300.822 127.965L260.566 123.012C261.955 108.222 267.327 96.3141 276.681 87.2894C286.036 78.2647 300.396 73.7524 319.764 73.7524C334.805 73.7524 346.981 76.9003 356.292 83.1961C368.869 91.6979 375.158 103.032 375.158 117.2C375.122 123.207 373.438 129.09 370.291 134.207C367.039 139.665 360.403 146.333 350.383 154.212C343.4 159.748 338.991 164.189 337.158 167.534C335.331 170.897 334.418 175.259 334.418 180.652ZM312.275 191.127H317.249C322.186 191.127 326.92 193.087 330.411 196.577C333.903 200.066 335.865 204.799 335.868 209.735C335.868 214.673 333.907 219.409 330.415 222.901C326.923 226.392 322.188 228.354 317.249 228.354H312.275C309.831 228.354 307.41 227.872 305.152 226.936C302.893 226.001 300.842 224.629 299.113 222.9C297.385 221.171 296.015 219.118 295.08 216.859C294.146 214.601 293.666 212.18 293.667 209.735C293.667 204.8 295.628 200.067 299.117 196.577C302.607 193.088 307.34 191.127 312.275 191.127Z" fill="white"/>
<path d="M199.209 371.578H145.608C121.972 371.578 118.749 383.826 131.642 385.491C144.534 387.156 171.393 395.214 158.501 398.974C145.608 402.735 142.923 415.09 163.873 415.627C184.823 416.164 290.648 416.701 307.838 415.627C325.028 414.553 316.207 400.049 295.375 400.586C274.543 401.123 284.202 394.269 316.949 393.914C349.695 393.559 373.375 375.027 334.697 373.856C296.02 372.684 199.209 371.578 199.209 371.578Z" fill="#DEEAF8"/>
<path d="M207.975 383.374C207.975 383.374 198.628 381.225 194.664 383.374C190.7 385.523 193.805 394.408 214.819 391.271L207.975 383.374Z" fill="#263135"/>
<path d="M257.343 383.374C257.343 383.374 266.69 381.225 270.654 383.374C274.618 385.523 271.514 394.408 250.499 391.271L257.343 383.374Z" fill="#263135"/>
<path d="M194.138 363.584C194.138 363.584 184.909 361.436 186.488 372.824C188.067 380.205 214.819 391.271 214.819 391.271V368.999L194.138 363.584Z" fill="#687C94"/>
<path d="M227.131 313.54V320.051C227.131 320.051 232.235 326.497 238.326 320.051V313.54C238.326 313.54 230.838 306.933 227.131 313.54Z" fill="#ECA87B"/>
<path d="M272.91 363.584C272.91 363.584 282.15 361.436 280.571 372.824C278.98 380.205 252.229 391.271 252.229 391.271V368.999L272.91 363.584Z" fill="#687C94"/>
<path d="M251.434 323.468L242.495 320.137C236.346 317.86 229.585 317.86 223.436 320.137L214.497 323.457C214.497 323.457 201.605 330.591 212.112 367.27C212.112 367.27 218.451 372.813 232.965 372.813C247.48 372.813 253.808 367.27 253.808 367.27C264.369 330.602 251.434 323.468 251.434 323.468Z" fill="#F6376D"/>
<path d="M226.745 275.787C226.745 275.787 220.245 273.875 217.183 278.086C214.121 282.298 217.183 287.841 217.183 287.841C217.183 287.841 212.402 288.798 211.639 294.728C210.876 300.659 215.27 302.56 215.27 302.56C214.504 303.915 214.133 305.458 214.2 307.014C214.266 308.569 214.768 310.074 215.646 311.359C217.559 314.045 223.876 311.359 223.876 311.359C223.983 312.145 224.309 312.885 224.816 313.495C225.323 314.105 225.992 314.56 226.745 314.808C229.42 315.764 231.912 312.659 231.912 312.659C231.912 312.659 235.136 317.043 241.657 314.948C248.178 312.853 247.211 307.492 247.211 307.492C247.211 307.492 251.992 308.448 254.281 304.623C256.569 300.798 252.562 296.211 252.562 296.211C253.339 294.498 253.741 292.639 253.741 290.758C253.741 288.878 253.339 287.019 252.562 285.306C249.887 279.569 245.675 281.675 245.675 281.675C245.675 281.675 246.255 276.131 242.807 274.218C239.358 272.306 235.35 276.7 235.35 276.7C235.35 276.7 235.544 271.092 231.332 271.157C226.884 271.264 226.745 275.787 226.745 275.787Z" fill="#263135"/>
<path d="M212.112 367.28C212.112 367.28 210.833 379.421 212.112 387.339C213.39 395.257 232.675 396.041 241.904 395.515C251.133 394.988 257.805 391.293 253.808 367.28C253.808 367.28 233.266 377.702 212.112 367.28Z" fill="#697A9E"/>
<path d="M214.046 339.196C214.347 341.689 214.594 344.192 214.83 346.717L215.496 354.237L216.044 361.758C216.205 364.272 216.377 366.775 216.452 369.279C216.044 366.797 215.722 364.304 215.432 361.812C215.142 359.319 214.927 356.816 214.69 354.291C214.454 351.766 214.325 349.285 214.218 346.771C214.11 344.257 214.024 341.71 214.046 339.196Z" fill="#5858BC"/>
<path d="M251.724 339.121C251.724 341.635 251.659 344.149 251.552 346.642C251.444 349.134 251.251 351.648 251.079 354.162C250.907 356.676 250.639 359.169 250.338 361.683C250.037 364.197 249.736 366.668 249.263 369.15C249.349 366.636 249.511 364.133 249.672 361.629L250.22 354.109L250.886 346.588C251.176 344.117 251.423 341.625 251.724 339.121Z" fill="#5858BC"/>
<path d="M119.458 402.025C125.588 402.025 130.557 400.597 130.557 398.835C130.557 397.072 125.588 395.644 119.458 395.644C113.329 395.644 108.36 397.072 108.36 398.835C108.36 400.597 113.329 402.025 119.458 402.025Z" fill="#DEEAF8"/>
<path d="M373.546 395.644C381.557 395.644 388.05 394.186 388.05 392.388C388.05 390.59 381.557 389.133 373.546 389.133C365.536 389.133 359.042 390.59 359.042 392.388C359.042 394.186 365.536 395.644 373.546 395.644Z" fill="#DEEAF8"/>
<path d="M341.144 409.901C341.144 410.491 339.059 410.975 336.492 410.975C333.924 410.975 331.829 410.491 331.829 409.901C331.829 409.31 333.913 408.826 336.492 408.826C339.07 408.826 341.144 409.31 341.144 409.901Z" fill="#E8E8F7"/>
<path d="M99.7651 377.358C102.732 377.358 105.137 376.867 105.137 376.262C105.137 375.657 102.732 375.166 99.7651 375.166C96.7983 375.166 94.3933 375.657 94.3933 376.262C94.3933 376.867 96.7983 377.358 99.7651 377.358Z" fill="#DEEAF8"/>
<path d="M90.4611 400.425C90.4611 401.306 88.452 402.015 85.981 402.015C83.51 402.015 81.5009 401.306 81.5009 400.425C81.5009 399.544 83.51 398.835 85.981 398.835C88.452 398.835 90.4611 399.544 90.4611 400.425Z" fill="#DEEAF8"/>
<path d="M34.68 39.6627C37.7951 39.6627 40.3204 37.1374 40.3204 34.0223C40.3204 30.9072 37.7951 28.3819 34.68 28.3819C31.5648 28.3819 29.0395 30.9072 29.0395 34.0223C29.0395 37.1374 31.5648 39.6627 34.68 39.6627Z" fill="#E8E8F7"/>
<path d="M203.721 250.722C207.513 250.722 210.586 247.649 210.586 243.857C210.586 240.065 207.513 236.992 203.721 236.992C199.929 236.992 196.856 240.065 196.856 243.857C196.856 247.649 199.929 250.722 203.721 250.722Z" fill="#B3C6E4"/>
<path d="M416.349 296.608C418.129 296.608 419.572 295.165 419.572 293.385C419.572 291.605 418.129 290.162 416.349 290.162C414.569 290.162 413.126 291.605 413.126 293.385C413.126 295.165 414.569 296.608 416.349 296.608Z" fill="#E8E8F7"/>
<path d="M85.734 298.295C85.734 299.133 85.4857 299.951 85.0206 300.647C84.5554 301.343 83.8943 301.886 83.1209 302.206C82.3474 302.527 81.4963 302.61 80.6751 302.447C79.854 302.284 79.0998 301.881 78.5078 301.289C77.9158 300.697 77.5126 299.942 77.3493 299.121C77.186 298.3 77.2698 297.449 77.5902 296.675C77.9105 295.902 78.4531 295.241 79.1492 294.776C79.8453 294.311 80.6637 294.062 81.501 294.062C82.0572 294.061 82.6083 294.169 83.1225 294.382C83.6367 294.594 84.104 294.906 84.4973 295.299C84.8907 295.692 85.2024 296.16 85.4146 296.674C85.6269 297.188 85.7354 297.739 85.734 298.295Z" fill="#B3C6E4"/>
<path d="M167.687 46.4097L31.7791 82.5944C20.8139 85.5148 11.4577 92.6708 5.76799 102.489C0.0783146 112.307 -1.47884 123.982 1.43897 134.948L26.3536 228.289C29.1584 238.829 35.8836 247.899 45.1539 253.644C54.4241 259.39 65.539 261.377 76.2257 259.199C88.2264 276.292 109.682 284.586 107.479 281.514C101.609 273.341 97.9964 263.765 97.004 253.752L214.615 222.434C220.044 220.989 225.135 218.489 229.597 215.077C234.06 211.664 237.806 207.406 240.623 202.545C243.439 197.684 245.27 192.317 246.012 186.748C246.753 181.179 246.391 175.519 244.944 170.091L220.094 76.7391C218.649 71.3041 216.146 66.2074 212.728 61.7407C209.311 57.274 205.047 53.5249 200.179 50.7079C195.312 47.8909 189.936 46.0613 184.361 45.3238C178.785 44.5862 173.119 44.9552 167.687 46.4097Z" fill="#B3C6E4"/>
<path d="M142.385 177.622L112.303 186.679L111.401 183.682C109.995 179.509 109.312 175.127 109.381 170.725C109.582 167.167 110.442 163.677 111.916 160.432C113.413 157.109 117.159 150.924 123.154 141.878C126.37 137.108 127.538 133.276 126.657 130.382C126.354 129.119 125.788 127.934 124.996 126.904C124.204 125.875 123.202 125.024 122.058 124.409C119.852 123.327 117.016 123.327 113.549 124.409C111.815 124.874 110.196 125.693 108.793 126.813C107.389 127.934 106.233 129.332 105.395 130.92C103.697 134.128 103.436 138.92 104.611 145.295L72.8308 150.752C70.4743 139.171 71.828 128.868 76.8919 119.843C81.9557 110.818 91.8614 104.06 106.609 99.5695C118.069 96.11 128.057 95.709 136.573 98.3662C148.112 101.947 155.511 109.131 158.769 119.918C160.124 124.502 160.194 129.371 158.974 133.992C157.763 138.899 154.246 145.506 148.423 153.814C144.369 159.63 142.034 164.024 141.418 166.997C140.855 170.564 141.187 174.215 142.385 177.622ZM127.935 190.687L131.728 189.537C133.589 188.974 135.544 188.784 137.479 188.977C139.414 189.169 141.292 189.742 143.007 190.66C144.721 191.579 146.237 192.827 147.469 194.332C148.7 195.837 149.623 197.57 150.185 199.432C150.747 201.297 150.935 203.255 150.739 205.193C150.543 207.131 149.966 209.011 149.042 210.726C148.117 212.44 146.864 213.956 145.353 215.185C143.842 216.414 142.103 217.333 140.237 217.89L136.444 219.028C134.583 219.591 132.63 219.782 130.695 219.59C128.76 219.398 126.882 218.827 125.168 217.909C123.454 216.991 121.938 215.745 120.706 214.241C119.473 212.737 118.549 211.005 117.986 209.144C116.853 205.383 117.26 201.326 119.118 197.865C120.975 194.403 124.131 191.821 127.892 190.687H127.935Z" fill="white"/>
</svg>

<svg width="477" height="417" fill="none" xmlns="http://www.w3.org/2000/svg"><path d="M246.599 227.161s3.535 35.089 32.833 43.802c29.298 8.714 45.123 3.17 62.539-15.041 0 0-4.749 35.626-24.539 49.088 0 0 46.714-5.683 61.755-54.298 0 0 45.123-3.224 47.498-44.93 0 0 43.544-14.773 49.087-54.363 5.544-39.591-13.461-51.463-38.795-66.504 0 0 10.153-22.712-18.586-45.274-20.145-11.818-43.953.935-43.953.935S363.351 1.791 309.514.201c-16.62 0-43.222 16.631-45.757 34.842 0 0-31.587-19.006-60.605 1.58-29.019 20.584-20.66 58.585-10.98 76 0 0-31.071 30.082-14.257 72.842s68.684 41.696 68.684 41.696z" fill="#DEEAF8"/><path d="M334.418 180.652H295.01v-3.932c0-6.704.763-12.148 2.288-16.331a36.025 36.025 0 016.79-11.463c3.009-3.445 9.763-9.533 20.263-18.264 5.608-4.563 8.409-8.746 8.402-12.549-.008-3.803-1.128-6.758-3.363-8.863-2.256-2.149-5.651-3.17-10.217-3.17a16.448 16.448 0 00-12.184 4.878c-3.209 3.259-5.264 8.928-6.167 17.007l-40.256-4.953c1.389-14.79 6.761-26.698 16.115-35.723 9.355-9.024 23.715-13.537 43.083-13.537 15.041 0 27.217 3.148 36.528 9.444 12.577 8.502 18.866 19.836 18.866 34.004a32.842 32.842 0 01-4.867 17.007c-3.252 5.458-9.888 12.126-19.908 20.005-6.983 5.536-11.392 9.977-13.225 13.322-1.827 3.363-2.74 7.725-2.74 13.118zm-22.143 10.475h4.974a18.615 18.615 0 0113.166 31.774 18.621 18.621 0 01-13.166 5.453h-4.974a18.604 18.604 0 01-13.162-5.454 18.617 18.617 0 0113.162-31.773z" fill="#fff"/><path d="M199.209 371.578h-53.601c-23.636 0-26.859 12.248-13.966 13.913 12.892 1.665 39.751 9.723 26.859 13.483-12.893 3.761-15.578 16.116 5.372 16.653 20.95.537 126.775 1.074 143.965 0 17.19-1.074 8.369-15.578-12.463-15.041-20.832.537-11.173-6.317 21.574-6.672 32.746-.355 56.426-18.887 17.748-20.058-38.677-1.172-135.488-2.278-135.488-2.278z" fill="#DEEAF8"/><path d="M207.975 383.374s-9.347-2.149-13.311 0c-3.964 2.149-.859 11.034 20.155 7.897l-6.844-7.897zM257.343 383.374s9.347-2.149 13.311 0c3.964 2.149.86 11.034-20.155 7.897l6.844-7.897z" fill="#263135"/><path d="M194.138 363.584s-9.229-2.148-7.65 9.24c1.579 7.381 28.331 18.447 28.331 18.447v-22.272l-20.681-5.415z" fill="#687C94"/><path d="M227.131 313.54v6.511s5.104 6.446 11.195 0v-6.511s-7.488-6.607-11.195 0z" fill="#ECA87B"/><path d="M272.91 363.584s9.24-2.148 7.661 9.24c-1.591 7.381-28.342 18.447-28.342 18.447v-22.272l20.681-5.415z" fill="#687C94"/><path d="M251.434 323.468l-8.939-3.331a27.442 27.442 0 00-19.059 0l-8.939 3.32s-12.892 7.134-2.385 43.813c0 0 6.339 5.543 20.853 5.543 14.515 0 20.843-5.543 20.843-5.543 10.561-36.668-2.374-43.802-2.374-43.802z" fill="#F6376D"/><path d="M226.745 275.787s-6.5-1.912-9.562 2.299c-3.062 4.212 0 9.755 0 9.755s-4.781.957-5.544 6.887c-.763 5.931 3.631 7.832 3.631 7.832a8.323 8.323 0 00.376 8.799c1.913 2.686 8.23 0 8.23 0a4.236 4.236 0 002.869 3.449c2.675.956 5.167-2.149 5.167-2.149s3.224 4.384 9.745 2.289c6.521-2.095 5.554-7.456 5.554-7.456s4.781.956 7.07-2.869c2.288-3.825-1.719-8.412-1.719-8.412a13.2 13.2 0 000-10.905c-2.675-5.737-6.887-3.631-6.887-3.631s.58-5.544-2.868-7.457c-3.449-1.912-7.457 2.482-7.457 2.482s.194-5.608-4.018-5.543c-4.448.107-4.587 4.63-4.587 4.63z" fill="#263135"/><path d="M212.112 367.28s-1.279 12.141 0 20.059c1.278 7.918 20.563 8.702 29.792 8.176 9.229-.527 15.901-4.222 11.904-28.235 0 0-20.542 10.422-41.696 0z" fill="#697A9E"/><path d="M214.046 339.196c.301 2.493.548 4.996.784 7.521l.666 7.52.548 7.521c.161 2.514.333 5.017.408 7.521-.408-2.482-.73-4.975-1.02-7.467-.29-2.493-.505-4.996-.742-7.521-.236-2.525-.365-5.006-.472-7.52-.108-2.514-.194-5.061-.172-7.575zM251.724 339.121c0 2.514-.065 5.028-.172 7.521-.108 2.492-.301 5.006-.473 7.52-.172 2.514-.44 5.007-.741 7.521-.301 2.514-.602 4.985-1.075 7.467.086-2.514.248-5.017.409-7.521l.548-7.52.666-7.521c.29-2.471.537-4.963.838-7.467z" fill="#5858BC"/><path d="M119.458 402.025c6.13 0 11.099-1.428 11.099-3.19 0-1.763-4.969-3.191-11.099-3.191-6.129 0-11.098 1.428-11.098 3.191 0 1.762 4.969 3.19 11.098 3.19zM373.546 395.644c8.011 0 14.504-1.458 14.504-3.256 0-1.798-6.493-3.255-14.504-3.255-8.01 0-14.504 1.457-14.504 3.255 0 1.798 6.494 3.256 14.504 3.256z" fill="#DEEAF8"/><path d="M341.144 409.901c0 .59-2.085 1.074-4.652 1.074-2.568 0-4.663-.484-4.663-1.074 0-.591 2.084-1.075 4.663-1.075 2.578 0 4.652.484 4.652 1.075z" fill="#E8E8F7"/><path d="M99.765 377.358c2.967 0 5.372-.491 5.372-1.096 0-.605-2.405-1.096-5.372-1.096s-5.372.491-5.372 1.096c0 .605 2.405 1.096 5.372 1.096zM90.461 400.425c0 .881-2.009 1.59-4.48 1.59-2.471 0-4.48-.709-4.48-1.59 0-.881 2.009-1.59 4.48-1.59 2.471 0 4.48.709 4.48 1.59z" fill="#DEEAF8"/><path d="M34.68 39.663a5.64 5.64 0 100-11.281 5.64 5.64 0 000 11.28z" fill="#E8E8F7"/><path d="M203.721 250.722a6.864 6.864 0 006.865-6.865 6.864 6.864 0 00-6.865-6.865 6.864 6.864 0 00-6.865 6.865 6.864 6.864 0 006.865 6.865z" fill="#B3C6E4"/><path d="M416.349 296.608a3.223 3.223 0 100-6.446 3.223 3.223 0 000 6.446z" fill="#E8E8F7"/><path d="M85.734 298.295a4.232 4.232 0 11-4.233-4.233 4.216 4.216 0 012.996 1.237 4.22 4.22 0 011.237 2.996zM167.687 46.41L31.779 82.594a42.791 42.791 0 00-30.34 52.354l24.915 93.341a42.768 42.768 0 0049.872 30.91c12 17.093 33.456 25.387 31.253 22.315a57.275 57.275 0 01-10.475-27.762l117.611-31.318a42.778 42.778 0 0026.008-19.889 42.766 42.766 0 004.321-32.454l-24.85-93.352a42.772 42.772 0 00-35.733-31.415 42.776 42.776 0 00-16.674 1.086z" fill="#B3C6E4"/><path d="M142.385 177.622l-30.082 9.057-.902-2.997a38.682 38.682 0 01-2.02-12.957 28.82 28.82 0 012.535-10.293c1.497-3.323 5.243-9.508 11.238-18.554 3.216-4.77 4.384-8.602 3.503-11.496a9.215 9.215 0 00-4.599-5.973c-2.206-1.082-5.042-1.082-8.509 0a13.036 13.036 0 00-8.154 6.511c-1.698 3.208-1.959 8-.784 14.375l-31.78 5.457c-2.357-11.581-1.003-21.884 4.06-30.909 5.065-9.025 14.97-15.783 29.718-20.273 11.46-3.46 21.448-3.861 29.964-1.204 11.539 3.581 18.938 10.765 22.196 21.552a26.127 26.127 0 01.205 14.074c-1.211 4.907-4.728 11.514-10.551 19.822-4.054 5.816-6.389 10.21-7.005 13.183a21.789 21.789 0 00.967 10.625zm-14.45 13.065l3.793-1.15a14.815 14.815 0 0111.279 1.123 14.812 14.812 0 017.178 8.772 14.805 14.805 0 01-9.948 18.458l-3.793 1.138a14.803 14.803 0 01-18.458-9.884 14.813 14.813 0 019.906-18.457h.043z" fill="#fff"/></svg>
